X:1
T:James Gibb editions
T:Psalm 148 (Becker) - Schütz
%%score [ ( 1 2 ) ( 3 4 ) ]
L:1/8
Q:1/4=98
M:2/2
K:C
V:1 treble nm="Soprano Alto"
V:2 treble 
V:3 bass nm="Tenor Bass"
V:4 bass 
V:1
"^Cornelius Becker\n(1561-1604)""^Psalm 148, SWV 253""^Heinrich Schütz\n(1585-1672)" d4 G2 d2 | %1
w: ~Lo- bet, ihr|
 e2 d2 c2 B2 | A4 E4 | A2 c2 B2 c2 | d2 e2 c4 |[M:2/2] e4 d2 B2 | d2 A2 c2 B2 | A4 D4 | %8
w: Him- mel, Gott den|Herrn, sein|wer- ten Na- men|sollt ihr ehr'n,|all sei- ne|En- gel, lobt ihn|sehr, zu-|
 G2 A2 (B>cd)c | B2 A2 G8 |] %10
w: samt dem him\- * * me-|li- schen Heer.|
V:2
 D4 E2 D2 | C2 G2 E2 E2 | E4 C4 | E2 E2 E2 E2 | G2 G2 F4 |[M:2/2] G4 G2 D2 | F2 C2 E2 D2 | D4 F4 | %8
 E2 ^F2 G3 E | D2 D2 D8 |] %10
V:3
 B,4 B,2 G,2 | G,2 B,2 A,2 ^G,2 | A,4 A,4 | C2 A,2 ^G,2 A,2 | B,2 C2 A,4 | %5
[M:2/2]"^2. Sonn und Mond, lobet Gott den Herrn, \nlobt ihn, alle leuchtende Stern, \nihr Himmel, lobet ihn aufs best, \nund ihr Wasser ans Himmels Fest.\n\n3. Ihr sollt sein Namen ehren schön \nund unsern Gott mit Preis erhöhn, \nwas er nur will zu jeder Zeit, \ndas steht bald da, wenn ers gebeut.\n\n4. Seine Geschöpf verläßt er nicht,\nerhält sie imm'r und ewiglich, \nin ihrer Ordnung sie da stehn, \nund wie er will, müssen sie gehen.\n\n5. Alles was auf der Erden lebt \nund in Wassern und Lüften schwebt, \ndie großen Walfisch in dem Meer \nloben den Herrn, preisen sein Ehr.\n\n6. Dampf, Feuer, Hagel und der Schnee, \nauch die Sturmwind zu Land und See \nschnell richten aus an allem Ort \ngehorsamlich des Herren Wort." C4 B,2 G,2 | %6
 A,2 A,2 G,2 G,2 | ^F,4 A,4 | %8
"^7. Berg, Tal und Hügel insgemein, \ndie Zedern und fruchtbare Bäum,\nG'würm, Vögel, Vieh und alles Tier\nlobet den Herren für und für.\n\n8. Zu loben Gott seid stets bereit, \nihr König und all Obrigkeit, \nihr Fürsten, Richter allesamt, \nund alle Leut im ganzen Land.\n\n9. Die Jüngling und Jungfrauen rein,\njung und alt alles insgemein \nsoll sich im Dienste finden lan, \nzu loben unsers Gottes Nam'n.\n\n10. Preiset des Herren Namen fein, \nsein Lob soll unverschwiegen sein, \nso weit Himmel und Erde geht, \nwird unsers Gottes Nam erhöht." C2 C2 (D>CB,)A,- | %9
 A, G,2 ^F, G,8 |] %10
V:4
 G,4 E,2 B,,2 | C,2 G,,2 A,,2 E,2 | A,,4 A,4 | A,2 A,2 E,2 A,2 | G,2 C,2 F,4 |[M:2/2] C,4 G,2 G,2 | %6
 D,2 F,2 C,2 G,,2 | D,4 D,4 | C,2 A,,2 G,,3 A,, | (B,,>C,) D,2 G,,8 |] %10

